React/src/assets/images/otherSkills/markdown.svg

<svg width="130" height="130" viewBox="0 0 130 130" fill="none" xmlns="http://www.w3.org/2000/svg">
<path d="M12.1875 85.3126V41.9792H23.0208L39.2708 58.2292L55.5208 41.9792H66.3542V85.3126H55.5208V57.3084L39.2708 73.5584L23.0208 57.3084V85.3126H12.1875ZM88.0208 41.9792H104.271V63.6459H117.812L96.1458 88.0209L74.4792 63.6459H88.0208V41.9792Z" fill="#42A5F5"/>
</svg>

<svg width="130" height="130" fill="none" xmlns="http://www.w3.org/2000/svg"><path d="M12.188 85.313V41.979H23.02l16.25 16.25 16.25-16.25h10.833v43.334H55.521V57.308l-16.25 16.25-16.25-16.25v28.005H12.187zM88.02 41.979h16.25v21.667h13.541L96.146 88.02 74.479 63.646h13.542V41.979z" fill="#42A5F5"/></svg>
